X: 108
T: Pollonesse #108
M: 3/4
L: 1/16
R: Pollonesse
K: Cm
Q: 110
G2|c4 G2(GF) E2(ED)|C2(CD) EDEF G4|BcdB c2(cd) e2(ec)|G3f fgaf f3g|
c4 G2(GF) E2(ED)|C2(CD) EDEF G4|E2g2 D2f2 C2e2|edcB B4 c2:|
d2|e4 B2BA G2GF|E2EF GFGA B4|BcdB c2cd e3c| g4 G2GA B2G2| c4 G2GF E2ED|
C2CD E2EF G4|E3g f2f2 gedc|BcdB B4c2:|ED|E2FG ABcd efga|
b2bg e2eB cBAG|FEFG AGAB cBcd| e2ec fedc B4|=BcBc A2AG FGAF|
ABAB G2GF EFGE|e4g2ge B2BA|G3F F4E2:|F2|B4 B2=AB cBAF|
d4 d2cd edcB|f2fd f2fd b2bg|f2f=e f2f=e f2e2|_e2c2 c2A2 F2FD|
E2GE B,A,B,c,B,4|e4 g2ge B2BA|G3F F4E2:|

